assets/icons/care/machine_wash_30_gentle_or_delicate.svg

<svg xmlns="http://www.w3.org/2000/svg" viewBox="0 0 453.5 453.5" style="enable-background:new 0 0 453.5 453.5" xml:space="preserve"><path d="M437.4 34.5h-25.9l-9 51.2c-5.7-1.5-9.6-5.7-15.5-12.5-7.9-9.1-18.8-21.7-39.5-21.7S315.9 64 308 73.2c-7.5 8.6-11.8 13.1-20.8 13.1s-13.3-4.5-20.8-13.1c-7.9-9.1-18.8-21.7-39.5-21.7S195.3 64 187.4 73.2c-7.5 8.6-11.8 13.1-20.8 13.1s-13.3-4.5-20.8-13.1c-7.9-9.1-18.8-21.7-39.5-21.7S74.7 64 66.8 73.2C60.5 80.5 56.4 84.8 49.9 86l-9-51.5H15L64.6 318h323.2l49.6-283.5zm-39.2 75.6-31.9 182.4H86L54.2 110.4c15.5-2.8 24.5-13.1 31.3-21 7.5-8.6 11.8-13.1 20.8-13.1s13.3 4.5 20.8 13.1c7.9 9.1 18.8 21.7 39.5 21.7s31.6-12.5 39.5-21.7c7.5-8.6 11.8-13.1 20.8-13.1s13.3 4.5 20.8 13.1c7.9 9.1 18.8 21.7 39.5 21.7s31.6-12.5 39.5-21.7c7.5-8.6 11.8-13.1 20.8-13.1s13.3 4.5 20.8 13.1c6.7 7.6 15.3 17.6 29.9 20.7zm-93.3 93c0-23.9-6.2-54.6-36.3-54.6-30.1 0-36.3 30.7-36.3 54.6 0 23.8 6.1 54.6 36.3 54.6 30.2 0 36.3-30.7 36.3-54.6zm-17.1 0c0 21.9-4.2 40.3-19.2 40.3s-19.2-18.5-19.2-40.3c0-21.9 4.2-40.4 19.2-40.4 15 .1 19.2 18.5 19.2 40.4zm-86.1-3.7v-.3c10-3.6 14.9-12 14.9-22.5 0-18.6-16.8-28-33.2-28-21.1 0-33.9 15.3-34.8 35.7h17.1c-.3-10.8 5.5-21.5 17.4-21.5 9.5 0 16.4 6 16.4 14.9 0 12.9-11.9 17-23.2 16.5V207c13.5-.6 27.4 1.5 27.4 17.8 0 12-8.7 18.8-20.1 18.8-13.3 0-20.3-9.6-19.8-22.3h-17.1c.4 21.9 12.6 36.6 36.9 36.6 20.1 0 37.2-12.3 37.2-32.1 0-13.7-7.2-24-19.1-26.4zm186.1 144.1H64.6V369h323.1v-25.5h.1zm0 50.8H64.6v25.5h323.1v-25.5h.1z"/></svg>

<?xml version="1.0" encoding="utf-8"?>
<!-- Generator: Adobe Illustrator 23.0.4, SVG Export Plug-In . SVG Version: 6.00 Build 0)  -->
<svg version="1.1" id="Ebene_1" xmlns="http://www.w3.org/2000/svg" xmlns:xlink="http://www.w3.org/1999/xlink" x="0px" y="0px"
	 viewBox="0 0 453.5 453.5" style="enable-background:new 0 0 453.5 453.5;" xml:space="preserve">
<g>
	<path d="M437.4,34.5L437.4,34.5l-25.9,0l-9,51.2c-5.7-1.5-9.6-5.7-15.5-12.5c-7.9-9.1-18.8-21.7-39.5-21.7
		c-20.7,0-31.6,12.5-39.5,21.7c-7.5,8.6-11.8,13.1-20.8,13.1c-9,0-13.3-4.5-20.8-13.1c-7.9-9.1-18.8-21.7-39.5-21.7
		c-20.7,0-31.6,12.5-39.5,21.7c-7.5,8.6-11.8,13.1-20.8,13.1c-9,0-13.3-4.5-20.8-13.1c-7.9-9.1-18.8-21.7-39.5-21.7
		c-20.7,0-31.6,12.5-39.5,21.7C60.5,80.5,56.4,84.8,49.9,86l-9-51.5H15l0,0L64.6,318h323.2L437.4,34.5L437.4,34.5z M398.2,110.1
		l-31.9,182.4H86L54.2,110.4c15.5-2.8,24.5-13.1,31.3-21c7.5-8.6,11.8-13.1,20.8-13.1c9,0,13.3,4.5,20.8,13.1
		c7.9,9.1,18.8,21.7,39.5,21.7c20.7,0,31.6-12.5,39.5-21.7c7.5-8.6,11.8-13.1,20.8-13.1c9,0,13.3,4.5,20.8,13.1
		c7.9,9.1,18.8,21.7,39.5,21.7c20.7,0,31.6-12.5,39.5-21.7c7.5-8.6,11.8-13.1,20.8-13.1c9,0,13.3,4.5,20.8,13.1
		C375,97,383.6,107,398.2,110.1L398.2,110.1z M304.9,203.1c0-23.9-6.2-54.6-36.3-54.6c-30.1,0-36.3,30.7-36.3,54.6
		c0,23.8,6.1,54.6,36.3,54.6C298.8,257.7,304.9,227,304.9,203.1L304.9,203.1z M287.8,203.1c0,21.9-4.2,40.3-19.2,40.3
		c-15,0-19.2-18.5-19.2-40.3c0-21.9,4.2-40.4,19.2-40.4C283.6,162.8,287.8,181.2,287.8,203.1L287.8,203.1z M201.7,199.4v-0.3
		c10-3.6,14.9-12,14.9-22.5c0-18.6-16.8-28-33.2-28c-21.1,0-33.9,15.3-34.8,35.7h17.1c-0.3-10.8,5.5-21.5,17.4-21.5
		c9.5,0,16.4,6,16.4,14.9c0,12.9-11.9,17-23.2,16.5v12.8c13.5-0.6,27.4,1.5,27.4,17.8c0,12-8.7,18.8-20.1,18.8
		c-13.3,0-20.3-9.6-19.8-22.3h-17.1c0.4,21.9,12.6,36.6,36.9,36.6c20.1,0,37.2-12.3,37.2-32.1C220.8,212.1,213.6,201.8,201.7,199.4
		L201.7,199.4z M387.8,343.5H64.6V369h323.1V343.5L387.8,343.5z M387.8,394.3H64.6v25.5h323.1V394.3L387.8,394.3z"/>
</g>
</svg>
